X:8002
T:Harvest Home
T:Cork Hornpipe
R:Hornpipe
C:Trad.
O:Ireland
Z:Paul Hardy's Session Tunebook 2022 (see www.paulhardy.net). Creative Commons cc by-nc-sa licenced.
M:4/4
L:1/8
Q:1/4=130
K:D
AF|"D"DAFA DAFA|defe dcBA|"G"e2 f2 g2 f2|"A7"ed cB AG FE|
"D"DAFA DAFA|defe dcBA|"G"e2 f2 "A7"gece|"D"d2 f2 d2:|
|:cd|"A7"eAA2 fAA2|g2f2 eAA2|"G"e2 f2 g2 f2|"A7"(3efe (3dcB (3ABA (3GFE|
"D"DAFA DAFA|defe dcBA|"G"e2 f2 "A7"gece|"D"d2 f2 d2:|

